X: 24073
T: Long Drop, The
R: reel
M: 4/4
K: Gmajor
|:gedg edBA|GEE2 EDB,E|DEGA ~B3c|dBeB dBef|
gedg edBA|GEE2 EDB,E|DEGA ~B3c|dBAc BGG2:|
|:gBBA BBgB|BBgB aged|c2cd e2ef|g2bg agef|
gBBA B2gB|B2ab aged|cBcd efge|dBAc BGG2:|

